gama.ui.shared/icons_svg/light/editor/open.declaration.svg

<svg height="25" viewBox="-151.383 -3675.743 25 25" width="25" xmlns="http://www.w3.org/2000/svg"><g fill="none"><path d="m-147.04302-3675.243h16.32c2.12078 0 3.84 1.7194 3.84 3.84v16.32c0 2.121-1.71922 3.84-3.84 3.84h-16.32c-2.12077 0-3.84-1.719-3.84-3.84v-16.32c0-2.1206 1.71923-3.84 3.84-3.84z" fill="#fff"/><path d="m-147.04302-3675.243h16.32c2.12078 0 3.84 1.7194 3.84 3.84v16.32c0 2.121-1.71922 3.84-3.84 3.84h-16.32c-2.12077 0-3.84-1.719-3.84-3.84v-16.32c0-2.1206 1.71923-3.84 3.84-3.84z" stroke="#000" stroke-linecap="round" stroke-linejoin="round" stroke-width=".25"/><path d="m-141.2919-3666.794-1.90223-1.911c-.17777-.178-.17777-.4534 0-.631.17778-.178.45333-.178.63111 0l2.66667 2.6665c.17778.1778.17778.4535 0 .6311l-2.66667 2.6667c-.17778.1777-.45333.1777-.63111 0-.17777-.1778-.17777-.4533 0-.6313l1.91111-1.911h-3.36888c-.73778 0-1.33334.5956-1.33334 1.3334v5.3334c0 .7377.59556 1.3332 1.33334 1.3332h4.44444c.24889 0 .44444.1956.44444.4445s-.19555.4445-.44444.4445h-4.45334c-1.22666 0-2.22222-.9956-2.22222-2.2222v-5.3334c0-1.2266.99556-2.2224 2.22222-2.2224h3.3689zm3.74222.889c-.24889 0-.44445-.1956-.44445-.4445s.19556-.4445.44445-.4445h6.22222c.24889 0 .44444.1956.44444.4445s-.19555.4445-.44444.4445zm0 4.4444c-.24889 0-.44445-.1954-.44445-.4444s.19556-.4445.44445-.4445h6.22222c.24889 0 .44444.1955.44444.4445s-.19555.4444-.44444.4444zm0 4.4446c-.24889 0-.44445-.1957-.44445-.4446s.19556-.4444.44445-.4444h6.22222c.24889 0 .44444.1955.44444.4444s-.19555.4446-.44444.4446z" fill="#5f78a3"/></g></svg>

<?xml version="1.0" encoding="UTF-8" standalone="no"?>
<!DOCTYPE svg PUBLIC "-//W3C//DTD SVG 1.1//EN" "http://www.w3.org/Graphics/SVG/1.1/DTD/svg11.dtd">
<svg xmlns:dc="http://purl.org/dc/elements/1.1/" xmlns:xl="http://www.w3.org/1999/xlink" version="1.1" xmlns="http://www.w3.org/2000/svg" viewBox="-151.38302 -3675.743 25 25" width="25" height="25">
  <defs/>
  <g id="SOURCES" stroke-dasharray="none" stroke="none" stroke-opacity="1" fill="none" fill-opacity="1">
    <title>SOURCES</title>
    <g id="SOURCES_Calque_2">
      <title>Calque 2</title>
      <g id="Graphic_9941">
        <path d="M -147.04302 -3675.243 L -130.72302 -3675.243 C -128.60224 -3675.243 -126.88302 -3673.5236 -126.88302 -3671.403 L -126.88302 -3655.083 C -126.88302 -3652.962 -128.60224 -3651.243 -130.72302 -3651.243 L -147.04302 -3651.243 C -149.16379 -3651.243 -150.88302 -3652.962 -150.88302 -3655.083 L -150.88302 -3671.403 C -150.88302 -3673.5236 -149.16379 -3675.243 -147.04302 -3675.243 Z" fill="white"/>
        <path d="M -147.04302 -3675.243 L -130.72302 -3675.243 C -128.60224 -3675.243 -126.88302 -3673.5236 -126.88302 -3671.403 L -126.88302 -3655.083 C -126.88302 -3652.962 -128.60224 -3651.243 -130.72302 -3651.243 L -147.04302 -3651.243 C -149.16379 -3651.243 -150.88302 -3652.962 -150.88302 -3655.083 L -150.88302 -3671.403 C -150.88302 -3673.5236 -149.16379 -3675.243 -147.04302 -3675.243 Z" stroke="black" stroke-linecap="round" stroke-linejoin="round" stroke-width=".25"/>
      </g>
      <g id="Group_9944">
        <title>prioritize-up</title>
        <g id="Graphic_9945">
          <path d="M -141.2919 -3666.794 L -143.19413 -3668.705 C -143.3719 -3668.883 -143.3719 -3669.1584 -143.19413 -3669.336 C -143.01635 -3669.514 -142.7408 -3669.514 -142.56302 -3669.336 L -139.89635 -3666.6695 C -139.71857 -3666.4917 -139.71857 -3666.216 -139.89635 -3666.0384 L -142.56302 -3663.3717 C -142.7408 -3663.194 -143.01635 -3663.194 -143.19413 -3663.3717 C -143.3719 -3663.5495 -143.3719 -3663.825 -143.19413 -3664.003 L -141.28302 -3665.914 L -144.6519 -3665.914 C -145.38968 -3665.914 -145.98524 -3665.3184 -145.98524 -3664.5806 L -145.98524 -3659.2472 C -145.98524 -3658.5095 -145.38968 -3657.914 -144.6519 -3657.914 L -140.20746 -3657.914 C -139.95857 -3657.914 -139.76302 -3657.7184 -139.76302 -3657.4695 C -139.76302 -3657.2206 -139.95857 -3657.025 -140.20746 -3657.025 L -144.6608 -3657.025 C -145.88746 -3657.025 -146.88302 -3658.0206 -146.88302 -3659.2472 L -146.88302 -3664.5806 C -146.88302 -3665.8072 -145.88746 -3666.803 -144.6608 -3666.803 L -141.2919 -3666.803 Z M -137.54968 -3665.905 C -137.79857 -3665.905 -137.99413 -3666.1006 -137.99413 -3666.3495 C -137.99413 -3666.5984 -137.79857 -3666.794 -137.54968 -3666.794 L -131.32746 -3666.794 C -131.07857 -3666.794 -130.88302 -3666.5984 -130.88302 -3666.3495 C -130.88302 -3666.1006 -131.07857 -3665.905 -131.32746 -3665.905 Z M -137.54968 -3661.4606 C -137.79857 -3661.4606 -137.99413 -3661.656 -137.99413 -3661.905 C -137.99413 -3662.154 -137.79857 -3662.3495 -137.54968 -3662.3495 L -131.32746 -3662.3495 C -131.07857 -3662.3495 -130.88302 -3662.154 -130.88302 -3661.905 C -130.88302 -3661.656 -131.07857 -3661.4606 -131.32746 -3661.4606 Z M -137.54968 -3657.016 C -137.79857 -3657.016 -137.99413 -3657.2117 -137.99413 -3657.4606 C -137.99413 -3657.7095 -137.79857 -3657.905 -137.54968 -3657.905 L -131.32746 -3657.905 C -131.07857 -3657.905 -130.88302 -3657.7095 -130.88302 -3657.4606 C -130.88302 -3657.2117 -131.07857 -3657.016 -131.32746 -3657.016 Z" fill="#5f78a3"/>
        </g>
      </g>
    </g>
  </g>
</svg>
